src/assets/img/providers-white/amaya.svg

<svg width="116" height="22" viewBox="0 0 116 22" fill="none" xmlns="http://www.w3.org/2000/svg">
<g clip-path="url(#clip0_4046_7115)">
<path d="M83.8627 10.8776C83.7989 10.9733 83.7352 10.9728 83.6714 10.876L76.6984 0.269803C76.6759 0.23555 76.6454 0.207418 76.6095 0.187938C76.5736 0.168458 76.5334 0.158241 76.4927 0.158209H72.1405C72.1327 0.158088 72.1249 0.159718 72.1178 0.162989C72.1106 0.166259 72.1042 0.171092 72.0991 0.177157C72.0939 0.183219 72.0901 0.190368 72.0879 0.198106C72.0857 0.205844 72.0852 0.213986 72.0863 0.221977C72.0927 0.259173 72.1081 0.295841 72.1326 0.331977C75.1052 4.72029 78.2734 9.40565 81.6372 14.3881C81.8498 14.7027 81.9555 15.1017 81.9544 15.5853C81.9491 17.5951 81.9491 19.6532 81.9544 21.7597C81.9544 21.8149 81.9821 21.8426 82.0373 21.8426L85.4091 21.841C85.4813 21.841 85.5175 21.8048 85.5175 21.7326L85.5047 15.0959C85.5047 14.8985 85.5641 14.7058 85.6753 14.5427L95.4255 0.239513C95.4304 0.231994 95.4334 0.223249 95.4339 0.214234C95.4344 0.205216 95.4325 0.196274 95.4284 0.188381C95.4261 0.184051 95.4233 0.180129 95.4199 0.176731C95.4171 0.173931 95.414 0.171486 95.4106 0.169465C95.403 0.164987 95.3944 0.162749 95.3856 0.162992L91.1163 0.164585C91.0706 0.164629 91.0256 0.176001 90.9853 0.197695C90.945 0.219386 90.9106 0.250725 90.8852 0.288933L83.8627 10.8776Z" fill="white"/>
<path d="M71.5029 21.833L75.8072 21.8314C75.7732 21.8293 75.745 21.8229 75.7227 21.8123C75.6536 21.7793 75.6547 21.748 75.7259 21.7182C75.7525 21.7065 75.7716 21.6879 75.7833 21.6624C75.7911 21.6463 75.7948 21.6284 75.794 21.6106C75.7931 21.5928 75.7878 21.5755 75.7785 21.5604C75.1706 20.5709 74.5855 19.5443 74.0233 18.4804C73.8997 18.2469 73.7623 18.023 73.6249 17.7989C73.4592 17.5287 73.2933 17.2582 73.1513 16.9707C72.825 16.3107 72.6581 15.9743 72.6507 15.9616L72.5884 15.8461C72.2402 15.1999 71.9211 14.6079 71.5013 13.9066C71.2026 13.4061 70.8753 12.821 70.5192 12.1514C69.9187 11.0206 69.103 9.60016 68.0721 7.89011C67.9858 7.74645 67.9236 7.59494 67.8614 7.44325C67.7835 7.25321 67.7054 7.06289 67.5795 6.88736C67.4127 6.6546 67.2745 6.40591 67.165 6.14127C67.0853 5.94997 66.9875 5.76185 66.8717 5.57692C66.7644 5.40687 66.6676 5.23311 66.5815 5.05562C66.1926 4.26064 65.7419 3.4476 65.2297 2.61649C65.0333 2.29673 64.8578 1.96527 64.6819 1.63303C64.5465 1.37723 64.4108 1.12097 64.2652 0.86924C64.2067 0.768274 64.1398 0.761898 64.0643 0.85011C63.9718 0.958517 63.9012 1.07915 63.8523 1.21199C63.7173 1.58716 63.5637 1.90494 63.3916 2.16533C63.1981 2.45653 63.0212 2.75412 62.8607 3.05808C61.6129 5.42707 60.3982 7.66533 59.2163 9.77287C59.0867 10.0056 58.8964 10.3797 58.6456 10.8952C58.52 11.154 58.3762 11.4052 58.2328 11.6557C58.0415 11.99 57.8508 12.323 57.705 12.6711C57.5998 12.9219 57.4818 13.1515 57.3511 13.3598C57.1928 13.6117 57.0445 13.8662 56.9063 14.1234C56.7565 14.403 56.604 14.6819 56.4488 14.9604C55.7229 16.2591 54.9768 17.5696 54.2105 18.8917C54.1073 19.0693 54.0258 19.2487 53.9429 19.4312C53.929 19.4618 53.915 19.4925 53.9009 19.5233C53.8874 19.5529 53.8737 19.5825 53.8598 19.6123C53.7875 19.7675 53.6866 19.9402 53.5569 20.1304C53.1956 20.6576 52.9017 21.2251 52.6753 21.833L56.7405 21.8378C56.7929 21.8379 56.8444 21.8236 56.8893 21.7967C56.9342 21.7697 56.971 21.731 56.9956 21.6848L64.0818 8.5262C64.0901 8.51138 64.1021 8.49899 64.1167 8.49036C64.1313 8.48173 64.1479 8.47717 64.1648 8.47717C64.1816 8.47717 64.1981 8.48173 64.2124 8.49036C64.2267 8.49899 64.2383 8.51138 64.246 8.5262L71.3817 21.7613C71.3933 21.7829 71.4106 21.801 71.432 21.8137C71.4533 21.8263 71.4778 21.833 71.5029 21.833Z" fill="white"/>
<path d="M115.025 21.8314L110.72 21.833C110.695 21.833 110.671 21.8263 110.649 21.8137C110.628 21.801 110.611 21.7829 110.599 21.7613L103.463 8.5262C103.456 8.51138 103.444 8.49899 103.43 8.49036C103.415 8.48173 103.399 8.47717 103.382 8.47717C103.365 8.47717 103.349 8.48173 103.334 8.49036C103.32 8.49899 103.307 8.51138 103.299 8.5262L96.213 21.6848C96.1884 21.731 96.1516 21.7697 96.1067 21.7967C96.0618 21.8236 96.0103 21.8379 95.9579 21.8378L91.8927 21.833C92.1191 21.2251 92.4129 20.6576 92.7743 20.1304C92.904 19.9402 93.0049 19.7675 93.0772 19.6123C93.1056 19.5516 93.1329 19.4913 93.1602 19.4314L93.1603 19.4311L93.1605 19.4306C93.2434 19.2483 93.3248 19.0691 93.4279 18.8917C94.1942 17.5696 94.9403 16.2591 95.6662 14.9604C95.8213 14.6819 95.9739 14.403 96.1237 14.1234C96.2619 13.8662 96.4101 13.6117 96.5685 13.3598C96.6992 13.1515 96.8172 12.9219 96.9224 12.6711C97.0682 12.323 97.2588 11.99 97.4502 11.6557C97.5935 11.4052 97.7373 11.154 97.863 10.8952C98.1138 10.3797 98.3041 10.0056 98.4337 9.77287C99.6156 7.66533 100.83 5.42707 102.078 3.05808C102.239 2.75412 102.415 2.45653 102.609 2.16533C102.781 1.90494 102.935 1.58716 103.07 1.21199C103.119 1.07915 103.189 0.958517 103.282 0.85011C103.357 0.761898 103.424 0.768274 103.483 0.86924C103.628 1.12099 103.764 1.37726 103.899 1.63306L103.899 1.63325C104.075 1.96542 104.251 2.2968 104.447 2.61649C104.959 3.4476 105.41 4.26064 105.799 5.05562C105.885 5.23311 105.982 5.40687 106.089 5.57692C106.205 5.76185 106.303 5.94997 106.382 6.14127C106.492 6.40591 106.63 6.6546 106.797 6.88736C106.923 7.06289 107.001 7.25321 107.079 7.44325C107.141 7.59494 107.203 7.74645 107.29 7.89011C108.32 9.60016 109.136 11.0206 109.737 12.1514C110.093 12.821 110.42 13.4061 110.719 13.9066C111.138 14.6078 111.457 15.1997 111.806 15.8457L111.868 15.9616C111.876 15.9743 112.042 16.3107 112.369 16.9707C112.511 17.2583 112.677 17.5287 112.842 17.7989L112.842 17.7991C112.98 18.0231 113.117 18.247 113.241 18.4804C113.803 19.5443 114.388 20.5709 114.996 21.5604C115.005 21.5755 115.011 21.5928 115.011 21.6106C115.012 21.6168 115.011 21.6229 115.011 21.629C115.009 21.6405 115.006 21.6518 115.001 21.6624C114.989 21.6879 114.97 21.7065 114.943 21.7182C114.872 21.748 114.871 21.7793 114.94 21.8123C114.962 21.8229 114.991 21.8293 115.025 21.8314Z" fill="white"/>
<path d="M19.6913 21.833L23.9956 21.8314C23.9616 21.8293 23.9334 21.8229 23.9111 21.8123C23.842 21.7793 23.8431 21.748 23.9143 21.7182C23.9409 21.7065 23.96 21.6879 23.9717 21.6624C23.9796 21.6463 23.9832 21.6284 23.9824 21.6106C23.9816 21.5928 23.9762 21.5755 23.9669 21.5604C23.359 20.5709 22.7739 19.5443 22.2117 18.4804C22.0881 18.2469 21.9508 18.023 21.8133 17.7989C21.6476 17.5287 21.4817 17.2583 21.3397 16.9707C21.0134 16.3107 20.8465 15.9743 20.8391 15.9616L20.7769 15.8461C20.4286 15.2 20.1096 14.608 19.6897 13.9066C19.391 13.4061 19.0637 12.821 18.7076 12.1514C18.1072 11.0206 17.2915 9.60016 16.2605 7.89011C16.1742 7.74645 16.1121 7.59494 16.0498 7.44324C15.9719 7.25321 15.8938 7.06289 15.7679 6.88736C15.6011 6.6546 15.4629 6.40591 15.3534 6.14127C15.2737 5.94997 15.176 5.76185 15.0601 5.57692C14.9528 5.40687 14.8561 5.23311 14.77 5.05562C14.381 4.26064 13.9304 3.4476 13.4181 2.61649C13.2217 2.29673 13.0462 1.96526 12.8703 1.63302L12.8702 1.63286C12.7348 1.37712 12.5992 1.12092 12.4536 0.86924C12.3951 0.768274 12.3282 0.761898 12.2527 0.85011C12.1603 0.958517 12.0896 1.07915 12.0407 1.21199C11.9057 1.58716 11.7521 1.90494 11.58 2.16533C11.3865 2.45653 11.2096 2.75412 11.0491 3.05808C9.80137 5.42707 8.58659 7.66533 7.40475 9.77287C7.27509 10.0056 7.08485 10.3797 6.83402 10.8952C6.70837 11.154 6.56459 11.4052 6.42121 11.6557C6.22987 11.99 6.03926 12.323 5.89345 12.6711C5.78823 12.9219 5.67026 13.1515 5.53953 13.3598C5.38118 13.6117 5.23292 13.8662 5.09475 14.1234C4.9449 14.403 4.79238 14.6819 4.63721 14.9604C3.91132 16.2591 3.16524 17.5696 2.39896 18.8917C2.29576 19.0693 2.21423 19.2487 2.13127 19.4313C2.10404 19.4912 2.07659 19.5516 2.04823 19.6123C1.97596 19.7675 1.87499 19.9402 1.74533 20.1304C1.38398 20.6576 1.09012 21.2251 0.863739 21.833L4.92896 21.8378C4.98136 21.8379 5.03279 21.8236 5.07773 21.7967C5.12267 21.7697 5.15942 21.731 5.18403 21.6848L12.2703 8.5262C12.2785 8.51138 12.2906 8.49899 12.3052 8.49036C12.3198 8.48173 12.3364 8.47717 12.3532 8.47717C12.37 8.47717 12.3865 8.48173 12.4008 8.49036C12.4151 8.49899 12.4267 8.51138 12.4345 8.5262L19.5701 21.7613C19.5817 21.7829 19.5991 21.801 19.6204 21.8137C19.6417 21.8263 19.6662 21.833 19.6913 21.833Z" fill="white"/>
<path d="M49.1139 21.8218L45.5731 21.8457C45.5482 21.8457 45.5243 21.8357 45.5066 21.8177C45.489 21.7998 45.4791 21.7754 45.4791 21.7501L45.5062 11.6907C45.5062 11.4451 45.4334 11.4212 45.2878 11.6189L38.3705 21.0072C38.2887 21.1177 38.2074 21.1177 38.1266 21.0072L30.9655 11.2299C30.89 11.1258 30.8523 11.138 30.8523 11.2666L30.865 21.7581C30.865 21.8144 30.8374 21.8425 30.7821 21.8425L27.3865 21.8409C27.3746 21.8409 27.3633 21.8362 27.3549 21.8279C27.3465 21.8195 27.3418 21.8081 27.3418 21.7963L27.3498 13.422L27.3211 0.351078C27.3201 0.209724 27.362 0.195377 27.4471 0.308033L38.1617 14.5491C38.1711 14.5613 38.1831 14.5712 38.197 14.578C38.2108 14.5848 38.226 14.5884 38.2414 14.5884C38.2568 14.5884 38.272 14.5848 38.2858 14.578C38.2997 14.5712 38.3117 14.5613 38.3211 14.5491L49.0294 0.312818C49.1091 0.2076 49.1489 0.220887 49.1489 0.352673L49.1139 21.8218Z" fill="white"/>
<path d="M106.207 14.4646L100.573 14.4694C100.564 14.4694 100.555 14.4719 100.547 14.4765C100.539 14.4812 100.533 14.4878 100.529 14.4958C100.527 14.499 100.525 14.5024 100.524 14.5058C100.523 14.511 100.522 14.5164 100.522 14.5219C100.522 14.5237 100.523 14.5255 100.523 14.5273C100.523 14.5303 100.524 14.5333 100.525 14.5362C100.526 14.5402 100.528 14.544 100.53 14.5475L103.36 19.4274C103.361 19.4288 103.362 19.4302 103.363 19.4316C103.364 19.4336 103.366 19.4354 103.367 19.4372C103.371 19.4405 103.374 19.4433 103.378 19.4456C103.383 19.448 103.387 19.4498 103.392 19.4509C103.394 19.4515 103.397 19.4519 103.399 19.4521C103.401 19.4522 103.402 19.4523 103.404 19.4523C103.412 19.4523 103.421 19.45 103.429 19.4456C103.437 19.4413 103.443 19.435 103.448 19.4274L106.252 14.5411C106.256 14.5334 106.259 14.5245 106.259 14.5155C106.259 14.5065 106.256 14.4977 106.252 14.4899C106.247 14.4822 106.241 14.4757 106.233 14.4713C106.228 14.4687 106.223 14.4669 106.218 14.4658L106.217 14.4654L106.215 14.4652C106.213 14.4648 106.21 14.4646 106.207 14.4646Z" fill="white"/>
<path d="M15.2722 14.5443L12.4584 19.4257C12.454 19.4337 12.4475 19.4403 12.4397 19.445C12.4318 19.4496 12.4229 19.452 12.4137 19.452C12.4046 19.452 12.3957 19.4496 12.3878 19.445C12.38 19.4403 12.3735 19.4337 12.3691 19.4257L9.55534 14.5443C9.55084 14.5365 9.54848 14.5276 9.5485 14.5186C9.54852 14.5096 9.55092 14.5008 9.55545 14.493C9.55999 14.4853 9.56649 14.4788 9.57431 14.4744C9.58213 14.47 9.59098 14.4677 9.59998 14.4677H15.2275C15.2365 14.4677 15.2454 14.47 15.2532 14.4744C15.261 14.4788 15.2675 14.4853 15.272 14.493C15.2766 14.5008 15.279 14.5096 15.279 14.5186C15.279 14.5276 15.2766 14.5365 15.2722 14.5443Z" fill="white"/>
<path d="M64.3082 19.4225L67.1092 14.5538C67.1143 14.5451 67.1169 14.5352 67.1169 14.5252C67.1169 14.5198 67.1162 14.5144 67.1147 14.5092C67.1134 14.5048 67.1116 14.5006 67.1093 14.4966C67.1043 14.4878 67.0971 14.4806 67.0884 14.4755C67.0797 14.4705 67.0699 14.4678 67.0598 14.4677H61.4578C61.4477 14.4678 61.4379 14.4705 61.4292 14.4755C61.4205 14.4806 61.4133 14.4878 61.4083 14.4966C61.4033 14.5053 61.4007 14.5151 61.4007 14.5252C61.4007 14.5352 61.4033 14.5451 61.4084 14.5538L64.2094 19.4225C64.2145 19.4311 64.2217 19.4382 64.2304 19.4432C64.239 19.4481 64.2488 19.4507 64.2588 19.4507C64.2688 19.4507 64.2786 19.4481 64.2873 19.4432C64.2959 19.4382 64.3032 19.4311 64.3082 19.4225Z" fill="white"/>
</g>
<defs>
<clipPath id="clip0_4046_7115">
<rect width="114.304" height="22" fill="white" transform="translate(0.847809)"/>
</clipPath>
</defs>
</svg>

<svg width="116" height="22" fill="none" xmlns="http://www.w3.org/2000/svg"><g clip-path="url(#a)" fill="#fff"><path d="M83.863 10.878c-.064.095-.128.095-.192-.002L76.698.27a.248.248 0 0 0-.205-.112H72.14a.052.052 0 0 0-.042.02.055.055 0 0 0-.013.044.28.28 0 0 0 .047.11c2.972 4.388 6.14 9.074 9.504 14.056.213.315.319.714.317 1.197-.005 2.01-.005 4.068 0 6.175 0 .055.028.083.083.083l3.372-.002c.072 0 .108-.036.108-.108l-.012-6.637c0-.197.06-.39.17-.553L95.425.24a.05.05 0 0 0-.006-.063.047.047 0 0 0-.033-.014l-4.27.002a.277.277 0 0 0-.23.124l-7.023 10.589ZM71.503 21.833l4.304-.002a.23.23 0 0 1-.084-.019c-.07-.033-.068-.064.003-.094a.11.11 0 0 0 .057-.056.108.108 0 0 0-.005-.102 54.739 54.739 0 0 1-1.755-3.08c-.123-.233-.26-.457-.398-.681-.166-.27-.332-.54-.474-.828l-.5-1.01-.063-.115a46.365 46.365 0 0 0-1.087-1.94c-.298-.5-.626-1.085-.982-1.755-.6-1.13-1.416-2.55-2.447-4.26a3.23 3.23 0 0 1-.21-.448 2.632 2.632 0 0 0-.282-.556 3.715 3.715 0 0 1-.415-.746 3.862 3.862 0 0 0-.293-.564 5.363 5.363 0 0 1-.29-.521 28.697 28.697 0 0 0-1.352-2.44c-.197-.32-.372-.65-.548-.983a23.145 23.145 0 0 0-.417-.764c-.058-.1-.125-.107-.2-.019a1.183 1.183 0 0 0-.213.362 4.482 4.482 0 0 1-.46.953c-.194.292-.37.59-.531.893a291.106 291.106 0 0 1-3.645 6.715c-.13.233-.32.607-.57 1.122-.126.259-.27.51-.413.76-.191.335-.382.668-.528 1.016-.105.25-.223.48-.354.689-.158.252-.306.506-.445.763-.15.28-.302.559-.457.837a289.9 289.9 0 0 1-2.238 3.932 5.94 5.94 0 0 0-.268.54 34.504 34.504 0 0 1-.083.18 3.75 3.75 0 0 1-.303.518 7.84 7.84 0 0 0-.882 1.703l4.066.005a.289.289 0 0 0 .255-.153l7.086-13.159a.096.096 0 0 1 .083-.049.092.092 0 0 1 .081.05l7.136 13.234a.135.135 0 0 0 .12.072ZM115.025 21.831l-4.305.002a.142.142 0 0 1-.071-.02.14.14 0 0 1-.05-.052l-7.136-13.235a.086.086 0 0 0-.033-.036.095.095 0 0 0-.096 0 .099.099 0 0 0-.035.036l-7.086 13.159a.29.29 0 0 1-.255.153l-4.065-.005c.226-.608.52-1.175.881-1.703.13-.19.23-.363.303-.518.029-.06.056-.12.083-.18v-.001c.083-.183.165-.362.268-.54a289.9 289.9 0 0 0 2.238-3.93c.155-.28.308-.558.458-.838.138-.257.286-.511.445-.763.13-.208.248-.438.353-.689.146-.348.337-.681.528-1.015.144-.25.287-.502.413-.76.25-.516.441-.89.57-1.123a291.883 291.883 0 0 0 3.645-6.715c.161-.304.337-.601.531-.893.172-.26.326-.578.461-.953.049-.133.119-.253.212-.362.075-.088.142-.082.201.02.145.251.281.507.416.763.176.332.352.664.548.983.512.832.963 1.645 1.352 2.44.086.177.183.35.29.52.116.186.214.374.293.565.11.265.248.514.415.746.126.176.204.366.282.556.062.152.124.303.211.447 1.03 1.71 1.846 3.13 2.447 4.261.356.67.683 1.255.982 1.756.419.7.738 1.293 1.087 1.939l.062.116c.008.012.174.349.501 1.009.142.287.308.558.473.828.138.224.275.448.399.681a54.551 54.551 0 0 0 1.755 3.08.1.1 0 0 1 .015.05v.019a.13.13 0 0 1-.01.033.11.11 0 0 1-.058.056c-.071.03-.072.061-.003.094.022.01.051.017.085.02ZM19.691 21.833l4.305-.002a.23.23 0 0 1-.085-.019c-.069-.033-.068-.064.003-.094a.11.11 0 0 0 .058-.056.107.107 0 0 0-.005-.102 54.739 54.739 0 0 1-1.755-3.08c-.124-.233-.261-.457-.399-.681-.165-.27-.331-.54-.473-.828l-.5-1.01-.063-.115c-.348-.646-.667-1.238-1.087-1.94-.299-.5-.626-1.085-.982-1.755-.6-1.13-1.416-2.55-2.447-4.26-.087-.145-.149-.296-.211-.448a2.632 2.632 0 0 0-.282-.556 3.715 3.715 0 0 1-.415-.746 3.852 3.852 0 0 0-.293-.564 5.362 5.362 0 0 1-.29-.521 28.699 28.699 0 0 0-1.352-2.44c-.196-.32-.372-.65-.548-.983-.135-.256-.27-.512-.416-.764-.059-.1-.126-.107-.201-.019a1.185 1.185 0 0 0-.212.362 4.482 4.482 0 0 1-.461.953c-.194.292-.37.59-.53.893a291.072 291.072 0 0 1-3.645 6.715c-.13.233-.32.607-.571 1.122-.126.259-.27.51-.413.76-.191.335-.382.668-.528 1.016a4.75 4.75 0 0 1-.353.689 12.95 12.95 0 0 0-.445.763c-.15.28-.303.559-.458.837A290 290 0 0 1 2.4 18.892a5.946 5.946 0 0 0-.268.54c-.027.06-.054.12-.083.18a3.751 3.751 0 0 1-.303.518 7.836 7.836 0 0 0-.881 1.703l4.065.005a.289.289 0 0 0 .255-.153L12.27 8.526a.095.095 0 0 1 .083-.049.092.092 0 0 1 .082.05L19.57 21.76a.136.136 0 0 0 .121.072ZM49.114 21.822l-3.54.024a.093.093 0 0 1-.067-.028.097.097 0 0 1-.028-.068l.027-10.06c0-.245-.073-.269-.218-.071l-6.917 9.388c-.082.11-.164.11-.244 0l-7.162-9.777c-.075-.104-.113-.092-.113.037l.013 10.491c0 .056-.028.085-.083.085l-3.395-.002a.045.045 0 0 1-.045-.045l.008-8.374L27.32.352c0-.142.041-.157.126-.044l10.715 14.241a.1.1 0 0 0 .124.029.1.1 0 0 0 .035-.029L49.03.313c.08-.105.12-.092.12.04l-.035 21.469Z"/><path d="m106.207 14.465-5.634.004a.052.052 0 0 0-.026.008.046.046 0 0 0-.018.019.043.043 0 0 0-.005.01.085.085 0 0 0-.002.016l.001.005.002.01a.046.046 0 0 0 .005.01l2.83 4.88.003.005.004.005.011.009a.062.062 0 0 0 .021.006h.005a.053.053 0 0 0 .044-.025l2.804-4.886a.057.057 0 0 0 .007-.026.057.057 0 0 0-.007-.025.054.054 0 0 0-.019-.019.06.06 0 0 0-.015-.005h-.003l-.008-.001ZM15.272 14.544l-2.814 4.882a.051.051 0 0 1-.09 0l-2.813-4.882a.051.051 0 0 1 .02-.07.052.052 0 0 1 .025-.006h5.627c.01 0 .018.002.026.006a.05.05 0 0 1 .02.07ZM64.308 19.422l2.801-4.868a.057.057 0 0 0 0-.057.057.057 0 0 0-.05-.03h-5.601a.057.057 0 0 0-.05.086l2.801 4.87a.058.058 0 0 0 .05.028c.01 0 .02-.003.028-.008a.058.058 0 0 0 .021-.02Z"/></g><defs><clipPath id="a"><path fill="#fff" transform="translate(.848)" d="M0 0h114.304v22H0z"/></clipPath></defs></svg>
